X: 642
T: Adelaide Clipper, The
R: waltz
M: 3/4
K: Gmajor
V:1
DG/A/|:"G"B2 Bd BG|"C"E2 "G"D2 GA|"G"B2 Bd GB|"D"A2 A2 GA|
V:2
GB/D/|:G2 GB dB|c2 B2 Bc|d2 dB Bd|c2 c2 Bc|
V:1
"G"B2 BG AG|"C"E2 "G"D2 GA|"Em"B2 BG "D"AG|1 "G"G2 G2 DG/A/:|2 "G"G2 GA "F#"Bd||
V:2
d2 dB cB|A2 G2 Bc|d2 dB cd|1 B2 B2 GB/D/:|2 B2 Bc dB||
V:1
|:"Em"e2 eg ed|"Bm"B2 BA Bd|"C"e2 eg "D"ab|"G"(g2 g)d ed|
V:2
|:c2 cd cB|d2 dc dB|c2 cd cd|(d2 d)B cB|
V:1
"G"B2 Bd BG|"C"E2 "G"D2 GA|"Em"B2 BG "D"AG|1 "G"G2 GA Bd:|2 "G"G2 G2 DG/A/||
V:2
d2 dB dB|c2 B2 Bc|d2 dB cd|1 B2 Bc dB:|2 B2 B2 GB/D/||

